X:1
T:James Gibb editions
T:James Gibb editions
T:Psalm 108 (Becker) - Schütz
%%score [ ( 1 2 ) ( 3 4 ) ]
L:1/8
Q:1/4=98
M:3/4
K:C
V:1 treble nm="Soprano Alto"
V:2 treble 
V:3 bass nm="Tenor Bass"
V:4 bass 
V:1
"^Cornelius Becker\n(1561-1604)""^Psalm 108, SWV 206""^Heinrich Schütz\n(1585-1672)" G2 B2 c2 | %1
w: ~Mit rech- tem|
w: und dich- ten|
 d4 c2 | B4 B2 | A6 | e2 d2 c2 | (d3 c B2) | c2 A4 | G6 :| G2 c2 G2 | A4 E2 | (A2 G2) F2 | E6 | %12
w: Ernst und|frö- lich'm|Mut|will ich dir,|Gott * *|lob- sin-|gen|wohl- auf mein|Ehr, mein|Psal\- * ter-|spiel,|
w: dir ein|Lied- lein|gut,|o Gott, laß|wohl * *|ge- lin-|gen,|||||
 E2 A2 E2 | F4 G2 | (F2 E2) D2 | C6 | G2 A2 F2 | (G2 AB c2) | B2 A4 | G12 |] %20
w: ich will früh|auf sein|in * der|Still,|mein Har- fe|soll * * *|er- klin-|gen.|
w: ||||||||
V:2
 D2 G2 G2 | G4 E2 | G4 G2 | ^F6 | E2 G2 G2 | G6 | G2 ^F4 | G6 :| E2 G2 E2 | F4 G2 | (F2 E2) D2 | %11
 B,6 | C2 E2 C2 | D4 C2 | C4 B,2 | C6 | E2 C2 D2 | E3 F G2 | G2 ^F4 | G12 |] %20
V:3
 B,2 D2 E2 | B,4 C2 | D4 D2 | D6 | G,2 D2 E2 | (B,3 C D2) | E2 D4 | D6 :| C2 E2 C2 | C4 C2 | %10
 C4 A,2 | ^G,6 | A,2 C2 A,2 | A,4 G,2 | %14
"^2. Ich will dir danken, Gott mein Herr,\nin deiner lieb'n Gemeine,\nda dir die Völker bringen Ehr, \nzu deinem Lob erscheinen,\nwo nur versammelt sind die Leut, \nda will ich auch zu jeder Zeit\ndir, meinem Gott, lobsingen.\n\n3. So weit da geht des Himmels Kreis, \ntut auch dein Gnade reichen,\ndein Treu und Wahrheit trägt den Preis, \ndie sich den Wolken gleichet,\nerheb dich, Gott, und mach bekannt \ndein Herrlichkeit im ganzen Land,\ndie übern Himmel reichet." (A,2 G,2) G,2 | %15
 G,6 | C2 A,2 A,2 | (C3 D E2) | D2 D4 | D12 |] %20
V:4
 G,2 G,2 C,2 | G,4 A,2 | G,4 G,2 | D,6 | C,2 B,,2 C,2 | G,6 | C,2 D,4 | G,6 :| C,2 C,2 C,2 | %9
 F,4 C,2 | (F,2 C,2) D,2 | E,6 | A,2 A,2 A,,2 | D,4 E,2 | F,2 C,2 G,,2 | C,6 | C,2 F,2 D,2 | C,6 | %18
 G,2 D,4 | G,12 |] %20

